X:1
T:Title
%%score ( 1 2 ) { 3 | 4 }
L:1/8
Q:1/4=104
M:4/4
K:Ab
V:1 treble nm="Grand Piano, Soprano"
V:2 treble 
V:3 bass nm="Choir Pad, Redeemed (O�Kane)"
V:4 bass 
V:1
 [CE]2 [Ec]2- [Ec][Ec][Fd][Ec] | z4 z2 .B2 | .G2 z2 z4 | [Ec]2 [EB]6 | %4
w: By~Tullius~Clinton~O�Kane * * * * *||||
 E-[EB] [Ec]2- [Ec][Ec][Fd][Ec] | z4 z2 .B2 | .G2 z2 z4 | [Ec]2 [CA]4 z2 | %8
w: ||||
 [Ac]>[Bd] [ce]2- [ce][_c=d] [=ce]2 | [Ac]>[Ac] [Bd]2- [Bd][Ac] [Gd]2 | %10
w: ||
 [GB]>[GB] A2 [FA]>[FA] [GB]2 | [GB]>[GB] [Ac]4 [GB]2 | [Ac]>[Bd] [ce]2- [ce][_c=d] [=ce]2 | %13
w: |||
 [Ac]>[Ac] [Fd]4 [DF]2 | [FB]>[FB] [EA]2 [EA][EB] [Ac]2 | [EB]2 [EA]6- | [EA]2 z2 z4 |] %17
w: ||||
V:2
 x8 | [DB][CA] [FA]2- [FA][FA]F-[FA] | D-[DF] [CE]2 [EA]2 [EB]2 | x8 | .A2 z2 z4 | %5
 [DB][CA] [FA]2- [FA][FA]F-[FA] | D-[DF] [CE]2 [CA]2 [DB]2 | x8 | x8 | x8 | x8 | x8 | x8 | x8 | %14
 x8 | x8 | x8 |] %17
V:3
 A,2 A,2- A,A, A,2 | A,2 A,2- A,[K:treble]DDC | B,A,[K:bass] A,2 A,2 G,2 | A,2 G,6 | %4
 A,G, A,2- A,A, A,2 | A,2 A,2- A,[K:treble]DDC | B,A,[K:bass] A,2 A,2 G,2 | G,2 A,4 z2 | %8
 z4[K:treble] E>E E2 | z4 E>E B,2 | E>D C2 C>C D2 | E>E E2 E>E E2 | z4 E>E E2 | z4 D>A, A,2 | %14
 D>D C2 CD E2 | D2 C6- | C2 z2 z4 |] %17
V:4
 A,,2 A,,2- A,,A,, A,,2 | A,,2 D,2- D,D, D,2 | D,2 A,,2 C,2 E,2 | E,2 E,4 E,D, | %4
 C,B,, A,,2- A,,A,, A,,2 | A,,2 D,2- D,D, D,2 | D,2 E,2 E,2 E,2 | E,2 A,,4 z2 | z4 A,>A, A,2 | %9
 z4 E,>E, E,2 | E,>E, F,2 F,>F, E,2 | E,>E, A,2 A,>A, E,2 | z4 A,>A, A,2 | z4 B,,>D, D,2 | %14
 D,>D, E,2 E,E, E,2 | E,2 [A,,A,]6- | [A,,A,]2 z2 z4 |] %17

